X:320
T: Es trieb sich ein Mdchen (4-21), S. 31
N: P0582
O: Lothringen
S: PINCK, Louis: Verklingende Weisen Bd 4, Kassel 1939]
R: Brautwerbung, Standesunterschied]
M: 6/8
L: 1/8
K: G
D | GGGBBB | dddB2B | c3d3 | B4-B
D | GGGBBB | dddB2B | c3d3 | B6
GGeeee | eddd2d | cccedd | BBBd2
d | dededA | c3d3 | B4-B

